X:576
T:Polska efter Olof Nordblad
T:(SvL Hälsingland 576)
R:Polska
B:Svenska Låtar Hälsingland
O:Norrala, Hälsingland
N:En version av polskan finns i Sexdregasamlingen.
S:Olof Nordblad
M:3/4
L:1/8
K:F
F2 CF AF|GG/A/ G4|Ac/A/ FA GF|BB/A/ B4|
Bd de a/g/f/e/|f/g/a/f/ c2 B2|Ac/A/ FA CF|FF/E/ F4:|
|:cA/c/ cd cg|gc cB/A/ B2|BG/B/ Bd Bf|fB BA/G/ A2|
FC/F/ AF/A/ c2|FC/F/ BF/B/ d2|cf cB AG|A/G/F/E/ F4:|

